X: 140
T: Shaqiu shang de xianghui The white peak of sand dunes
L: 1/8
M: 2/4
K: C
A cA2 [I:setbarnb 1]| 
D EA2 | 
A GE2 | 
E CA,2 | 
A cA2 | 
D EA2 | 
GE3- | 
E4 | 
A cA2 | 
D EA2 | 
A GE2 | 
E CA,2 | 
E E/ D/ C A | 
G E E C | 
CA,3- | 
A,4 |]

@@@ Tune index: 8808
